src/parts/tops/ShortHairDreads02.svg

<svg>
  <g
    id="Top"
    strokeWidth="1"
    fillRule="evenodd"
  >
    <defs>
      <rect
        id="ShortHairDreads02-path1"
        x="0"
        y="0"
        width="264"
        height="280"
      />
      <path
        id="ShortHairDreads02-path2"
        d="M65.1802189,77.7372986 C67.3631845,76.1045334 80.4065113,75.4786511 82.757829,74.0894494 C83.4916461,73.6553857 84.0610723,73.215719 84.4997781,72.7800074 C84.938814,73.215719 85.5085703,73.6553857 86.2423874,74.0894494 C88.593375,75.4786511 101.636702,76.1045334 103.819667,77.7372986 C106.030032,79.3908276 107.643571,83.1846831 107.466966,86.15095 C107.255041,89.7101408 103.361486,98.2028927 93.6723269,99.1811016 C91.5576925,96.8281927 88.2368647,95.3104528 84.4997781,95.3104528 C80.7633517,95.3104528 77.4421938,96.8281927 75.3275594,99.1811016 C65.6387308,98.2028927 61.7451757,89.7101408 61.5332501,86.15095 C61.3566455,83.1846831 62.9701849,79.3908276 65.1802189,77.7372986 M103.141638,94.9063813 C103.142958,94.9057221 103.144609,94.905063 103.145929,94.9047334 C103.144278,94.905063 103.142958,94.9057221 103.141638,94.9063813 M65.8453747,94.9014375 C65.8493359,94.9030855 65.8565982,94.9057221 65.8618798,94.9076997 C65.8565982,94.9057221 65.8509864,94.9034151 65.8453747,94.9014375 M144.86259,55.9853335 C144.47439,50.0303878 143.277769,44.1519058 142.233986,38.2862777 C141.952739,36.7072349 140.423706,26 139.734783,26 C139.502391,35.1094058 138.701893,44.0803858 137.669664,53.1393651 C137.361018,55.8475668 137.037848,58.5564277 136.825262,61.2741874 C136.653609,63.4695546 136.959614,66.1220564 136.427819,68.2455739 C135.749129,70.9524573 132.348087,73.4783984 129.702978,74.410795 C123.102915,76.7373371 117.597802,67.1077689 111.960977,64.2911336 C104.643272,60.6347152 92.0637391,59.7639895 84.5816434,64.5297918 C76.9361472,59.7639895 64.356614,60.6347152 57.0389092,64.2911336 C51.4024147,67.1077689 45.8969708,76.7373371 39.2972383,74.410795 C36.6521296,73.4783984 33.2504268,70.9524573 32.572397,68.2455739 C32.0402723,66.1220564 32.346277,63.4695546 32.174954,61.2741874 C31.9623682,58.5564277 31.6388681,55.8475668 31.3302226,53.1393651 C30.2983232,44.0803858 29.4974953,35.1094058 29.2654335,26 C28.5761802,26 27.0468169,36.7072349 26.7658999,38.2862777 C25.7221169,44.1519058 24.5258266,50.0303878 24.1376265,55.9853335 C23.738533,62.1047422 24.2148704,68.1674622 25.4695887,74.1632765 C26.0687242,77.0277016 26.7685407,79.8756475 27.518863,82.7041478 C28.352701,85.8467429 27.198994,91.9661516 27.5723395,95.1921317 C28.2787581,101.29572 31.1542781,113.199679 34.3833375,118.45096 C35.9440605,120.989096 37.7734867,122.573742 39.816489,124.619148 C41.7825775,126.58809 42.6038717,129.640049 44.7260985,131.73687 C48.6820428,135.645092 54.4456266,137.971304 60.3656788,138.543134 C65.6773527,143.050212 74.505605,146 84.4997781,146 C94.4946114,146 103.322534,143.050212 108.634538,138.543134 C114.55393,137.971304 120.317843,135.645092 124.274118,131.73687 C126.396015,129.640049 127.217309,126.58809 129.183727,124.619148 C131.2264,122.573742 133.055826,120.989096 134.616879,118.45096 C137.845608,113.199679 140.721458,101.29572 141.427547,95.1921317 C141.800892,91.9661516 140.647185,85.8467429 141.481353,82.7041478 C142.231676,79.8756475 142.931162,77.0277016 143.530628,74.1632765 C144.784686,68.1674622 145.261353,62.1047422 144.86259,55.9853335 Z"
      />
      <path
        id="ShortHairDreads02-path3"
        d="M153.503392,98.8736491 C157.89934,100.654655 161,104.965228 161,110 L161,123 C161,128.28759 157.580126,132.776426 152.8316,134.375285 C151.985668,145.321578 147.992514,155.385777 141.755762,163.66426 C141.964657,164.471736 142.166135,165.290125 142.311896,166.167999 C142.862922,169.494538 142.191903,172.260864 143.956619,175.261034 C144.414366,176.040649 145.140008,176.50834 145.478876,177.405464 C146.012313,178.819858 145.247,181.999219 147.428222,182 C150.534993,182.00039 148.803043,176.034013 148.024863,174.616105 C146.500469,171.843533 145.563369,171.165421 145.642135,167.571852 C147.387236,168.73171 153.172487,170.947581 155.089787,169.887664 C159.522305,167.44029 148.428013,164.951924 147.651918,164.434653 C149.356221,162.768846 151.308063,161.884996 152.848916,159.689035 C154.108583,157.895569 155.254913,155.292428 157.398137,155.187802 C158.584855,155.129634 162.056295,158.072417 163.10825,156.053694 C164.07308,154.203231 161.993578,153.931908 161.181077,153.276828 C159.678802,152.06661 159.340419,153.270972 159.706723,151.14333 C160.792178,152.307873 162.495834,151.571982 162.95061,150.127527 C163.441226,148.569468 161.823998,148.10412 161.853937,147.113692 C161.842192,147.500572 162.687735,141.999153 162.554381,142.176001 C163.413669,141.041128 166.462257,141.392482 167.966582,141.555666 C170.263178,141.804346 170.13091,141.873446 171.222117,143.992109 C172.103838,145.707106 174.419542,149.169502 174.928748,144.633135 C175.050449,143.548232 174.059985,141.228907 173.478827,140.295477 C172.851533,139.287873 170.962455,138.651922 170.567003,137.868403 C169.622984,135.99803 172.731819,131.833707 172.206,129.014288 C173.298856,129.431618 176.063377,135.941423 177.404406,130.612948 C178.111059,127.812658 170.89879,121.667871 173.890225,120.718825 C176.178665,119.993084 178.501504,122.944066 179.140297,124.762907 C179.612624,126.110544 179.400215,129.001405 180.207508,130.116368 C183.243976,134.318949 183.618438,127.375418 183.364612,125.543693 C182.806036,121.517569 181.381252,118.556438 177.742225,117.034295 C179.037272,115.426656 177.396605,114.146948 176.467109,113.140514 C177.994834,111.484467 187.90383,113.244749 185.67495,108.813788 C185.137049,107.742159 183.193837,107.552037 182.208315,107.158911 C179.717195,106.166532 177.22313,104.1482 175.950562,101.597371 C177.79234,101.136708 183.230278,102.394554 182.515816,98.6011044 C181.952817,95.619282 177.112955,96.5335826 175.237767,96.9915137 C176.930155,95.9749301 180.211017,96.8166176 180.67198,94.0499017 C181.203002,90.8666365 177.383839,90.9736042 175.591269,91.6482034 C175.17003,88.2904324 181.122531,85.8176826 182.804663,83.2477249 C183.373237,82.3806618 184.275583,82.0835727 183.551013,80.6153042 C182.244616,77.9719526 178.870779,81.7013778 177.758771,82.7050785 C178.635221,81.0771393 181.079608,74.3018671 180.708517,72.5829664 C180.162561,70.057123 178.355898,69.967723 176.919931,72.0153348 C175.988608,73.3450137 175.729666,76.7176196 175.238294,78.4419859 C173.199533,76.9046179 173.095791,78.6883239 172.991008,76.2507095 C172.923099,74.6707886 174.992708,71.5499862 175.522623,70.0032488 C175.978715,68.6739603 177.190719,66.2433729 176.465593,64.9570277 C174.690293,61.8139729 172.993447,66.1289878 172.525841,67.608968 C171.737261,64.1977131 174.740084,61.5524095 175.629329,58.1778516 C176.170088,56.1298495 177.605245,50.5995409 175.118415,49.6165311 C171.724815,48.2755308 172.918922,54.5725714 172.440664,56.6162793 C172.07606,58.1758997 171.519076,60.6935447 170.302082,61.4622287 C170.125896,61.5734908 167.481496,61.8046035 167.354151,61.6554733 C165.620359,59.6336275 170.392027,55.207741 170.637754,53.3037939 C170.861461,51.5731813 170.198398,50.4792998 168.576831,50.3754553 C167.767833,50.323533 166.456472,51.5751333 166.081721,51.4935411 C164.602506,51.1718572 166.529338,44.4051737 166.669221,42.5269926 C166.819045,40.5238856 166.575417,35.355081 163.186097,37.7423348 C163.413049,35.0454993 163.549887,32.5063826 163.920134,29.8505384 C164.114962,28.45176 165.31836,27.2060156 163.546466,26.0840259 C161.389659,24.7192116 160.195301,27.5757179 159.703512,29.2516754 C158.858129,32.1374612 160.604934,36.6265913 156.546177,36.7183337 C151.880955,36.8237399 155.102123,31.9875502 155.331481,28.8503513 C155.459059,27.1091981 154.318536,22.4287754 152.06891,25.5866651 C151.173373,26.8456828 151.481865,31.2813291 150.985494,32.7702884 C149.878539,32.2772219 151.717562,28.2546115 150.755804,27.2056252 C148.695236,24.958913 146.966535,28.2315783 145.655991,28.8975889 C145.57044,27.4527441 145.468923,26.0067281 145.407913,24.5603216 C145.315305,22.3600662 146.663012,17.7307849 145.2945,16.2125461 C142.95772,13.6238495 141.471891,16.6443209 140.789049,18.7364375 C140.175628,20.6196938 140.091904,22.4795265 137.555716,22.7360147 C137.763741,20.0192692 135.29832,14.3004008 136.520803,12.0087933 C137.073558,10.9742516 138.200031,11.7078002 138.699701,10.5498943 C139.521287,8.64672801 138.176249,7.83939509 136.714154,7.77771298 C129.921887,7.49233563 135.152043,16.9117402 132.745372,19.2693241 C131.646423,18.2285361 132.817064,17.1557359 131.680174,15.6730229 C130.456777,14.0782671 128.507084,14.2133431 126.762486,14.9351799 C126.706116,13.3220757 129.125524,2.01512054 123.682122,7.11833905 C122.329503,8.38945896 122.708203,10.5112454 121.988704,12.004499 C121.293397,13.448563 119.599928,15.6019713 118.647561,16.7751026 C118.138071,14.7079712 118.919891,12.1450405 119.467423,10.1091405 C119.848493,8.69357518 122.399415,4.30399525 121.855094,2.8653967 C120.275192,-1.30204956 115.532497,5.5840942 114.282756,6.69671451 C112.701004,8.10642397 106.402711,12.7415612 104.381766,11.3369268 C103.680648,10.8501066 104.312204,9.04610014 103.355021,8.20948774 C102.885296,7.799575 100.877713,7.60828238 100.304676,7.66059506 C100.663044,6.16656069 99.9590183,4.23411488 98.2500992,4.75060494 C96.1010516,5.40060944 97.031157,8.58855944 95.6691727,9.75271164 C93.1402627,11.9174413 90.1353523,7.6410754 87.4245062,7.76092608 C87.8388134,6.00571874 90.9097688,-0.301081675 86.0261697,1.61691959 C84.7804466,2.10647253 83.8958015,4.9680539 83.5854252,6.15758165 C82.7941498,9.19327834 83.364323,9.74958849 80.0771587,10.6065013 C80.3338947,8.84621888 79.876509,6.65923677 80.7256589,5.08595261 C81.4218191,3.79726501 85.0314735,0.441445987 81.1879964,0.0233349851 C76.4475113,-0.492764683 76.9137424,7.69455926 76.3331882,10.4628367 C72.1267344,7.91396017 69.3589223,11.5606221 66.8533479,14.7153886 C67.3001674,13.2963097 68.4061862,-0.841776108 63.8882057,3.47753307 C62.5963925,4.71468878 64.0256621,6.54407081 63.9388761,7.95573223 C63.8604755,9.23622158 63.4388415,10.377731 62.9428241,11.5742858 C62.1474037,13.4950198 61.2224184,15.460649 59.9693808,17.0979577 C58.3962141,19.1568908 58.9543722,19.318904 57.1484939,17.9212967 C54.7243438,16.0478003 53.5723002,11.2974971 53.6920659,8.39570525 C53.781581,6.23526987 54.8879763,1.84842269 51.3078111,2.86461591 C47.8009276,3.86128948 49.6590375,10.8387852 50.0116201,13.3177814 C50.3931233,16.0052474 50.6468605,18.7543956 50.1948883,21.4906608 C47.2109167,18.4409099 46.7758614,24.7926055 46.1779169,25.8763368 C45.1988562,27.6534061 43.310101,28.5232019 41.8428337,29.7357629 C41.0431153,26.9417195 44.2482173,24.5790605 43.6123112,22.3561622 C42.4186453,18.1910583 39.0417626,24.0719399 38.2998862,25.2263323 C37.6814572,26.1886512 35.6651905,31.6682087 34.9351609,32.1593232 C33.9115906,32.848367 27.3301947,29.6315279 26.6642795,29.0186108 C25.4417603,27.8938883 25.8867201,24.7465391 24.3487748,24.0297774 C19.6293173,21.8322547 22.4173261,29.7638712 23.3441752,31.4035222 C25.7628153,35.687696 26.8597232,40.8604044 26.2928172,45.9077967 C25.4350389,45.6056325 24.378271,44.5964663 23.8253733,43.8305151 C22.7491426,42.3411654 23.1404237,39.9656235 22.017351,38.8436337 C18.7294809,35.5639414 18.3438318,41.7216116 18.6111593,43.6353185 C19.1118632,47.2226407 20.9020846,48.3856217 22.3890054,51.3693961 C23.7571524,54.1197154 21.943774,57.4376663 21.5613192,60.4944442 C18.1321771,57.1944514 3.36588279,59.9510171 7.16521769,64.996067 C9.14262534,67.628878 11.4834592,62.6185731 13.763287,62.7450604 C17.8464603,62.9714884 19.9981829,68.0411331 19.730271,71.5921487 C19.2330959,69.6940575 17.308498,67.8307112 15.9842104,70.148475 C15.0865685,71.7213688 16.6185854,74.4088349 17.3583008,75.9707976 C16.4523462,75.5265303 11.9860935,73.4504198 11.1123314,73.8095815 C7.67255627,75.2239756 12.4125819,77.9610216 13.6493116,78.5079623 C17.8734551,80.3759933 20.5363542,82.427509 21.8496116,87.4998864 C19.4819334,86.7425238 19.8941915,85.6220957 18.2972545,84.4567723 C16.830792,83.3870952 16.5566308,83.9387206 15.2071591,83.5889284 C12.8451619,82.9775728 9.76564295,82.1620417 7.09694168,83.2707581 C5.12707484,84.0898028 1.809527,86.5809011 1.19123199,88.9213077 C0.433581882,91.7946008 2.03522104,92.5273687 4.0949367,91.063785 C6.54565844,89.3249741 6.99233616,85.9593953 10.6783285,86.1030599 C12.4468385,86.1721595 14.198865,87.0989527 15.3182307,88.4286316 C16.1532654,89.4217916 16.6409799,90.859219 17.4378821,91.9242113 C18.1406712,92.8638875 20.0019971,94.1826354 20.3954288,95.1781378 C21.8129983,98.7732678 19.1191629,101.97332 17.3124291,104.492136 C16.8931801,103.937778 13.8353612,102.734196 13.2017458,102.613565 C10.2619363,102.05257 9.16499332,103.411918 11.003339,106.125931 C11.5823428,106.981673 12.8005957,107.342006 13.4385893,108.120059 C14.1501828,108.989074 14.5506213,110.319534 15.2570206,111.263504 C16.6502186,113.127241 18.3720966,114.086046 20.0353361,115.585546 C19.4216552,115.995069 19.4893606,114.962089 18.9332619,115.176024 C18.5290809,115.331791 17.8260425,115.020647 17.3157029,115.190078 C16.4875948,115.464915 16.5976214,116.907417 16.0678004,117.11862 C12.7691062,118.433464 9.44069672,113.504361 6.48191847,113.343909 C4.86832034,113.256461 3.50714906,114.33785 4.28187338,116.365942 C4.82030298,117.777604 7.1521321,118.543555 8.31806645,119.133048 C11.5636759,120.776994 14.7956022,122.001266 18.2658233,120.739516 C21.0634173,123.177911 24.4247131,124.380712 27.9404633,124.415457 C25.9286815,125.412912 23.9404919,126.650458 23.2377959,129.136091 C22.0492883,127.906352 19.1297602,122.18397 17.6048295,126.674272 C16.5600021,129.760719 21.328009,133.54519 23.5253695,134.93577 C20.9696368,135.690791 18.8477815,135.842653 16.2480678,135.542832 C14.8906605,135.386674 11.9114372,133.569004 13.0097195,137.290621 C14.1918233,141.306595 21.2508358,139.501808 23.4900552,138.806518 C23.573221,137.609182 12.720439,150.91495 20.3316507,148.295803 C22.5082405,147.54781 22.7169752,143.295258 25.7496614,142.923213 C29.2527527,142.493 29.604919,146.000291 31.6318019,148.569078 C32.6420388,149.851129 37.301235,152.734182 37.0806939,153.833919 C36.8900419,154.785698 34.3317238,155.329905 33.7876434,156.661927 C33.1549566,158.211397 33.4406255,159.407952 34.3203529,160.740363 C35.8579788,163.072962 38.6803216,163.431343 40.9122645,164.344472 C44.0760798,165.639406 45.222862,167.210738 46.6413081,170.561482 C44.1404008,170.681333 37.0221866,177.920783 41.3837473,179.20908 C43.008912,179.689263 42.7562908,178.242857 43.4326768,177.443722 C43.7062927,176.928403 43.9803807,176.413865 44.2542196,175.898937 C44.712395,174.701211 45.2188422,174.627817 45.7732734,175.678365 C45.8972683,175.647914 47.3835007,176.067196 47.7210266,176.087887 C49.4285338,176.192512 50.5714284,174.896017 51.9872076,174.195261 C53.0103456,173.688921 54.0114437,173.77676 54.7822568,172.609485 C54.6931475,172.74417 55.3356677,170.098476 55.3468697,170.07271 C55.6226004,169.435623 56.3317095,169.525891 56.6573761,168.839152 C47.908417,159.753669 42.1996805,147.719969 41.1683996,134.375285 C36.4198742,132.776426 33,128.28759 33,123 L33,110 C33,104.965228 36.1006595,100.654655 40.4966083,98.8736491 C41.0282518,99.2483349 41.7670825,98.8748923 42,98.0318338 C41.5372601,96.526107 45.2959449,70.1780326 55,63.1563695 C58.618222,60.7183684 78.0082164,60.5372207 97.3126144,60.5504522 C116.408606,60.5635409 135.42084,60.7446886 139,63.1563695 C148.704055,70.1780326 152.46274,96.526107 152,98.0318338 C152.232917,98.8748923 152.971748,99.2483349 153.503392,98.8736491 Z"
      />
    </defs>
    <mask
      id="ShortHairDreads02-mask2"
      fill="white"
    >
      <use href="#ShortHairDreads02-path1" />
    </mask>
    <g id="Mask" />
    <g
      id="Top/Short-Hair/Dreads-02"
      mask="url('#ShortHairDreads02-mask2')"
    >
      <g transform="translate(-1.000000, 0.000000)">
        <g
          id="Hair"
          strokeWidth="1"
          fillRule="evenodd"
          transform="translate(36.000000, 0.000000)"
        >
          <mask
            id="ShortHairDreads02-mask1"
            fill="white"
          >
            <use href="#ShortHairDreads02-path3" />
          </mask>
          <use
            class="CustomColor"
            fill="var(--avataaar-hair-color)"
            href="#ShortHairDreads02-path3"
          />
        </g>
      </g>
    </g>
  </g>
</svg>

<svg>
  <g id="Top">
    <defs>
      <path id="ShortHairDreads02-path1" d="M0 0h264v280H0z"/>
      <path id="ShortHairDreads02-path2" d="M65.18 77.737c2.183-1.632 15.227-2.258 17.578-3.648.734-.434 1.303-.873 1.742-1.309.439.436 1.009.875 1.742 1.31 2.351 1.389 15.395 2.015 17.578 3.647 2.21 1.654 3.824 5.448 3.647 8.414-.212 3.56-4.106 12.052-13.795 13.03-2.114-2.353-5.435-3.87-9.172-3.87-3.737 0-7.058 1.517-9.172 3.87-9.69-.978-13.583-9.47-13.795-13.03-.176-2.966 1.437-6.76 3.647-8.414m.665 17.164.017.007-.017-.007m79.018-38.916c-.389-5.955-1.585-11.833-2.629-17.699-.281-1.579-1.81-12.286-2.5-12.286-.232 9.11-1.032 18.08-2.064 27.14-.309 2.708-.632 5.416-.845 8.134-.171 2.196.135 4.848-.397 6.972-.679 2.706-4.08 5.232-6.725 6.165-6.6 2.326-12.105-7.303-17.742-10.12-7.318-3.656-19.897-4.527-27.38.239-7.645-4.766-20.224-3.895-27.542-.239-5.637 2.817-11.142 12.446-17.742 10.12-2.645-.933-6.047-3.459-6.725-6.165-.532-2.124-.226-4.776-.397-6.972-.213-2.718-.536-5.426-.845-8.135C30.298 44.08 29.497 35.11 29.265 26c-.689 0-2.218 10.707-2.5 12.286-1.043 5.866-2.24 11.744-2.627 17.7-.4 6.119.077 12.181 1.332 18.177a165.44 165.44 0 0 0 2.049 8.541c.834 3.143-.32 9.262.053 12.488.707 6.104 3.582 18.008 6.811 23.259 1.561 2.538 3.39 4.123 5.433 6.168 1.967 1.97 2.788 5.021 4.91 7.118 3.956 3.908 9.72 6.234 15.64 6.806C65.677 143.05 74.506 146 84.5 146c9.995 0 18.823-2.95 24.135-7.457 5.919-.572 11.683-2.898 15.64-6.806 2.121-2.097 2.942-5.149 4.909-7.118 2.042-2.045 3.872-3.63 5.433-6.168 3.229-5.251 6.104-17.155 6.81-23.259.374-3.226-.78-9.345.054-12.488.75-2.828 1.45-5.676 2.05-8.54 1.254-5.997 1.73-12.06 1.332-18.179Z"/>
      <path id="ShortHairDreads02-path3" d="M153.503 98.874C157.9 100.654 161 104.965 161 110v13c0 5.288-3.42 9.776-8.168 11.375a55.713 55.713 0 0 1-11.076 29.29c.209.807.41 1.625.556 2.503.55 3.327-.12 6.093 1.645 9.093.457.78 1.183 1.247 1.522 2.144.533 1.415-.232 4.594 1.95 4.595 3.106 0 1.374-5.966.596-7.384-1.525-2.772-2.462-3.45-2.383-7.044 1.745 1.16 7.53 3.376 9.448 2.316 4.432-2.448-6.662-4.936-7.438-5.453 1.704-1.666 3.656-2.55 5.197-4.746 1.26-1.793 2.406-4.397 4.55-4.501 1.186-.058 4.657 2.884 5.71.866.964-1.85-1.115-2.122-1.928-2.777-1.502-1.21-1.84-.006-1.474-2.134 1.085 1.165 2.789.429 3.244-1.015.49-1.559-1.127-2.024-1.097-3.014-.012.387.834-5.115.7-4.938.86-1.135 3.908-.784 5.413-.62 2.296.248 2.164.317 3.255 2.436.882 1.715 3.198 5.178 3.707.641.121-1.085-.869-3.404-1.45-4.338-.627-1.007-2.517-1.643-2.912-2.427-.944-1.87 2.165-6.034 1.639-8.854 1.093.418 3.857 6.927 5.198 1.599.707-2.8-6.505-8.945-3.514-9.894 2.289-.726 4.612 2.225 5.25 4.044.473 1.348.26 4.238 1.068 5.353 3.036 4.203 3.41-2.74 3.157-4.572-.559-4.026-1.984-6.988-5.623-8.51 1.295-1.607-.345-2.887-1.275-3.893 1.528-1.657 11.437.104 9.208-4.327-.538-1.072-2.481-1.262-3.467-1.655-2.49-.992-4.985-3.01-6.257-5.562 1.841-.46 7.28.798 6.565-2.996-.563-2.982-5.403-2.067-7.278-1.61 1.692-1.016 4.973-.174 5.434-2.941.531-3.183-3.288-3.076-5.08-2.402-.422-3.358 5.53-5.83 7.213-8.4.568-.867 1.47-1.164.746-2.633-1.306-2.643-4.68 1.086-5.792 2.09.876-1.628 3.32-8.403 2.95-10.122-.546-2.526-2.353-2.615-3.79-.568-.93 1.33-1.19 4.703-1.68 6.427-2.04-1.537-2.143.246-2.248-2.191-.068-1.58 2.002-4.701 2.532-6.248.456-1.329 1.668-3.76.943-5.046-1.776-3.143-3.473 1.172-3.94 2.652-.789-3.411 2.214-6.057 3.103-9.431.541-2.048 1.976-7.578-.51-8.561-3.394-1.341-2.2 4.956-2.678 7-.365 1.559-.922 4.077-2.139 4.845-.176.111-2.82.343-2.948.193-1.734-2.021 3.038-6.447 3.284-8.351.223-1.73-.44-2.825-2.061-2.929-.81-.051-2.12 1.2-2.495 1.119-1.48-.322.447-7.089.587-8.967.15-2.003-.094-7.172-3.483-4.785.227-2.697.364-5.236.734-7.891.195-1.4 1.398-2.645-.374-3.767-2.156-1.365-3.35 1.492-3.842 3.168-.846 2.885.9 7.375-3.158 7.466-4.665.106-1.444-4.73-1.215-7.868.128-1.74-1.012-6.421-3.262-3.263-.896 1.259-.587 5.694-1.084 7.183-1.106-.493.733-4.515-.23-5.564-2.06-2.247-3.788 1.026-5.099 1.692-.086-1.445-.187-2.891-.248-4.338-.093-2.2 1.255-6.83-.113-8.347-2.337-2.59-3.823.431-4.506 2.523-.613 1.884-.697 3.744-3.233 4 .208-2.717-2.258-8.436-1.035-10.727.553-1.035 1.679-.301 2.179-1.46.821-1.902-.524-2.71-1.986-2.771-6.792-.286-1.562 9.134-3.969 11.491-1.099-1.04.072-2.113-1.065-3.596-1.223-1.595-3.173-1.46-4.918-.738-.056-1.613 2.364-12.92-3.08-7.817-1.352 1.271-.974 3.393-1.693 4.886-.696 1.445-2.39 3.598-3.341 4.771-.51-2.067.272-4.63.82-6.666.38-1.415 2.931-5.805 2.387-7.244-1.58-4.167-6.323 2.72-7.572 3.832-1.582 1.41-7.88 6.045-9.901 4.64-.701-.487-.07-2.29-1.027-3.128-.47-.41-2.477-.6-3.05-.548.358-1.494-.346-3.427-2.055-2.91-2.149.65-1.219 3.838-2.58 5.002-2.53 2.164-5.535-2.112-8.245-1.992.414-1.755 3.485-8.062-1.399-6.144-1.246.49-2.13 3.351-2.44 4.54-.792 3.036-.222 3.593-3.509 4.45.257-1.76-.2-3.948.649-5.521.696-1.289 4.305-4.645.462-5.063-4.74-.516-4.274 7.672-4.855 10.44-4.206-2.549-6.974 1.098-9.48 4.252.447-1.419 1.553-15.557-2.965-11.237-1.292 1.237.138 3.066.05 4.478-.078 1.28-.5 2.422-.995 3.618-.796 1.921-1.72 3.887-2.974 5.524-1.573 2.059-1.015 2.22-2.82.823-2.425-1.873-3.577-6.624-3.457-9.525.09-2.16 1.196-6.548-2.384-5.531-3.507.996-1.649 7.974-1.296 10.453.381 2.687.635 5.436.183 8.173-2.984-3.05-3.42 3.302-4.017 4.385-.98 1.777-2.868 2.647-4.335 3.86-.8-2.794 2.405-5.157 1.77-7.38-1.194-4.165-4.571 1.716-5.313 2.87-.619.963-2.635 6.442-3.365 6.933-1.023.69-7.605-2.527-8.27-3.14-1.223-1.125-.778-4.272-2.316-4.99-4.72-2.197-1.932 5.735-1.005 7.375 2.419 4.284 3.516 9.456 2.949 14.504-.858-.302-1.915-1.312-2.468-2.077-1.076-1.49-.685-3.865-1.808-4.987-3.288-3.28-3.673 2.878-3.406 4.791.5 3.588 2.291 4.75 3.778 7.734 1.368 2.75-.445 6.069-.828 9.125-3.429-3.3-18.195-.543-14.396 4.502 1.978 2.633 4.318-2.377 6.598-2.25 4.083.225 6.235 5.295 5.967 8.846-.497-1.898-2.422-3.761-3.746-1.444-.897 1.573.635 4.26 1.374 5.823-.906-.444-5.372-2.52-6.246-2.161-3.44 1.414 1.3 4.151 2.537 4.698 4.224 1.868 6.887 3.92 8.2 8.992-2.367-.757-1.955-1.878-3.552-3.043-1.466-1.07-1.74-.518-3.09-.868-2.362-.611-5.441-1.427-8.11-.318-1.97.819-5.287 3.31-5.906 5.65-.757 2.874.844 3.606 2.904 2.143 2.45-1.739 2.897-5.105 6.583-4.96 1.769.068 3.52.995 4.64 2.325.835.993 1.323 2.43 2.12 3.495.703.94 2.564 2.259 2.957 3.254 1.418 3.595-1.276 6.795-3.083 9.314-.419-.554-3.477-1.758-4.11-1.878-2.94-.561-4.037.798-2.199 3.512.58.856 1.798 1.216 2.436 1.994.711.87 1.112 2.2 1.818 3.144 1.393 1.863 3.115 2.822 4.778 4.322-.613.41-.546-.624-1.102-.41-.404.156-1.107-.155-1.617.014-.828.275-.718 1.717-1.248 1.929-3.299 1.314-6.627-3.615-9.586-3.775-1.614-.088-2.975.994-2.2 3.022.538 1.412 2.87 2.178 4.036 2.767 3.246 1.644 6.478 2.868 9.948 1.607 2.797 2.438 6.159 3.64 9.674 3.675-2.011.998-4 2.235-4.702 4.721-1.189-1.23-4.108-6.952-5.633-2.462-1.045 3.087 3.723 6.871 5.92 8.262-2.555.755-4.677.907-7.277.607-1.357-.156-4.337-1.974-3.238 1.748 1.182 4.016 8.24 2.21 10.48 1.516.083-1.198-10.77 12.108-3.158 9.489 2.176-.748 2.385-5 5.418-5.373 3.503-.43 3.855 3.077 5.882 5.646 1.01 1.282 5.67 4.165 5.449 5.265-.191.952-2.75 1.496-3.293 2.828-.633 1.55-.347 2.746.532 4.078 1.538 2.333 4.36 2.691 6.592 3.604 3.164 1.295 4.31 2.867 5.73 6.217-2.502.12-9.62 7.36-5.258 8.648 1.625.48 1.372-.966 2.049-1.765.273-.516.547-1.03.821-1.545.458-1.198.965-1.271 1.52-.22.123-.031 1.61.388 1.947.409 1.708.105 2.85-1.192 4.266-1.893 1.023-.506 2.024-.418 2.795-1.586-.089.135.554-2.51.565-2.536.276-.637.985-.547 1.31-1.234-8.749-9.085-14.457-21.119-15.489-34.464C36.42 132.776 33 128.288 33 123v-13c0-5.035 3.1-9.345 7.497-11.126.531.374 1.27 0 1.503-.842-.463-1.506 3.296-27.854 13-34.876 3.618-2.438 23.008-2.619 42.313-2.606 19.096.014 38.108.195 41.687 2.606 9.704 7.022 13.463 33.37 13 34.876.233.843.972 1.216 1.503.842Z"/>
    </defs>
    <mask id="ShortHairDreads02-mask2" fill="#fff">
      <use href="#ShortHairDreads02-path1"/>
    </mask>
    <g id="Top/Short-Hair/Dreads-02" mask="url('#ShortHairDreads02-mask2')">
      <g transform="translate(-1)">
        <g id="Hair" transform="translate(36)">
          <mask id="ShortHairDreads02-mask1" fill="#fff">
            <use href="#ShortHairDreads02-path3"/>
          </mask>
          <use fill="var(--avataaar-hair-color)" class="CustomColor" href="#ShortHairDreads02-path3"/>
        </g>
      </g>
    </g>
  </g>
</svg>
